Arcticons/scalable/apps/retrica.svg

<svg id="Layer_2" data-name="Layer 2" viewBox="0 0 48 48" xmlns="http://www.w3.org/2000/svg">
 <defs>
  <style>.cls-1{fill:none;stroke:#fff;stroke-linecap:round;stroke-linejoin:round;}</style>
 </defs>
 <path class="cls-1" d="m7.5 5.5a2 2 0 0 0-2 2v33a2 2 0 0 0 2 2h33a2 2 0 0 0 2-2v-33a2 2 0 0 0-2-2zm16.5 9.34a9.16 9.16 0 0 1 9.16 9.16 9.16 9.16 0 0 1-9.16 9.16 9.16 9.16 0 0 1-9.16-9.16 9.16 9.16 0 0 1 9.16-9.16zm15.48 24.64h-6.32v-6.32h6.32zm-3.16 0v-6.32m-3.16 3.16h6.32"/>
</svg>

<svg id="Layer_2" data-name="Layer 2" xmlns="http://www.w3.org/2000/svg" viewBox="0 0 48 48"><defs><style>.cls-1{fill:none;stroke:#fff;stroke-linecap:round;stroke-linejoin:round;}</style></defs><path class="cls-1" d="M7.5,5.5a2,2,0,0,0-2,2v33a2,2,0,0,0,2,2h33a2,2,0,0,0,2-2V7.5a2,2,0,0,0-2-2ZM24,14.84A9.16,9.16,0,0,1,33.16,24h0A9.16,9.16,0,0,1,24,33.16h0A9.16,9.16,0,0,1,14.84,24h0A9.16,9.16,0,0,1,24,14.84ZM39.48,39.48H33.16V33.16h6.32Zm-3.16,0V33.16m-3.16,3.16h6.32"/></svg>
